dist/svg/u1F58C.svg

<?xml version="1.0" encoding="UTF-8"?><svg id="a" xmlns="http://www.w3.org/2000/svg" viewBox="0 0 40 40"><g><path d="M13.277,30.393l-1.835-1.835-1.835-1.835-3.682,1.553c-2.195,.926-3.659,3.008-3.856,5.382-.138,1.666-.438,3.629-1.069,5.342,1.713-.631,3.676-.931,5.342-1.069,2.375-.197,4.456-1.661,5.382-3.856l1.553-3.682Z" fill="#ffb72d"/><path d="M33.317,3.006h0c-4.347,.26-8.348,2.458-10.899,5.988L9.607,26.723l1.835,1.835,1.835,1.835,17.729-12.811c3.53-2.551,5.728-6.552,5.988-10.899h0c.124-2.08-1.597-3.801-3.677-3.677Z" fill="#1e6ef4"/><path d="M9.771,24.464h6.73v3.977c0,.452-.367,.818-.818,.818h-5.094c-.452,0-.818-.367-.818-.818v-3.977h0Z" transform="translate(22.841 -1.421) rotate(45)" fill="#4a4a4a"/></g><rect width="40" height="40" fill="none"/></svg>

<svg id="Layer_1" data-name="Layer 1" xmlns="http://www.w3.org/2000/svg" viewBox="0 0 40 40"><defs><style>.cls-1{fill:#ffb72d;}.cls-2{fill:#1e6ef4;}.cls-3{fill:#4a4a4a;}.cls-4{fill:none;}</style></defs><path class="cls-1" d="M13.277,30.393l-1.835-1.835L9.607,26.723,5.925,28.276a6.382,6.382,0,0,0-3.856,5.382A20.944,20.944,0,0,1,1,39a20.944,20.944,0,0,1,5.342-1.069,6.382,6.382,0,0,0,5.382-3.856Z"/><path class="cls-2" d="M33.317,3.006h0a14.513,14.513,0,0,0-10.9,5.988L9.607,26.723l1.835,1.835,1.835,1.835L31.006,17.582a14.513,14.513,0,0,0,5.988-10.9h0A3.476,3.476,0,0,0,33.317,3.006Z"/><path class="cls-3" d="M9.771,24.464H16.5a0,0,0,0,1,0,0V28.44a.818.818,0,0,1-.818.818H10.589a.818.818,0,0,1-.818-.818V24.464A0,0,0,0,1,9.771,24.464Z" transform="translate(22.841 -1.421) rotate(45)"/><rect class="cls-4" width="40" height="40"/></svg>
